X: 1
T: Fingertarmen, polska efter Byss-Kalle (nr 46)
S: efter Byss-Kalle
B: 57 ltar efter Byss-Kalle nr 46
B: http://www.smus.se/earkiv/fmk/browselarge.phplang=sw&katalogid=Up4&bildnr=00018
N: Hmtade frn Sv. Ltar efter August Bohlin, Broberget, Harbo.
O: Uppland
R: Slngpolska
M: 3/4
K: D
L: 1/16
(Ad)fa a2f2 (gf)gb | (ab)ag (fg)ba (gf)ge | (dA)df a2f2 (gf)gb | (ab)ag g2f2 f4 :|
|| d2df (ec)eg (fd)fa | (gf)gb (fd)fa (ec)ea | d2df (ec)eg (fd)fa | (gf)gb (fd)fa (ec)ea |
d2>e2 f2g2 (fa)fd | (eg)ec d2A2 F2A2 | d2>e2 f2g2 (fa)fd | (eg)ec d2A2 F2A2 |
d2df (ec)eg (fd)fa | (gf)gb (fd)fa (ec)ea | d2df (ec)eg (fd)fa | (gf)gb (fd)fa (ec)ea |
d2>e2 f2g2 (fa)fd | (eg)ec d2A2 F2A2 | d2>e2 f2g2 (fa)fd | (eg)ec d8 ||]
